src/icons/scout-external-people.svg

<?xml version="1.0" encoding="UTF-8"?>
<svg width="512px" height="512px" viewBox="0 0 512 512" version="1.1" xmlns="http://www.w3.org/2000/svg" xmlns:xlink="http://www.w3.org/1999/xlink">
    <!-- Generator: Sketch 62 (91390) - https://sketch.com -->
    <title>scout-external-people</title>
    <desc>Created with Sketch.</desc>
    <g id="scout-external-people" stroke="none" stroke-width="1" fill="none" fill-rule="evenodd">
        <path d="M137.2,148.3 C193,148.3 238.4,193.7 238.4,249.5 C238.4,305.5 193.2,350.7 137.2,350.7 C81.4,350.7 36,305.5 36,249.5 C36,193.7 81.4,148.3 137.2,148.3 Z M277.6,175.61915 C284.4,157.51915 303.1,148.61915 321.7,149.31915 C339.9,149.81915 357.3,160.01915 362.9,178.01915 C365.6,186.71915 365.1,196.51915 363.7,205.41915 C363.3,208.71915 362.6,212.61915 360.8,215.61915 C368,213.31915 363.4,229.71915 362.6,232.01915 C361.7,235.41915 360.8,246.51915 354.8,244.91915 C354.1,251.91915 353.7,260.31915 350,266.61915 C349,268.21915 344.6,271.81915 344.6,273.61915 C344.6,276.41915 344.8,279.01915 344.9,281.61915 C345.2,284.91915 345.2,288.71915 346.3,291.91915 C347.4,295.11915 353,296.31915 355.9,297.31915 C365.3,300.61915 375.5,300.71915 384.8,304.01915 C404.4,310.81915 416.7,328.81915 416.5,349.71915 L416.5,349.71915 L223.2,349.71915 C223.2,334.61915 229.6,320.51915 241.8,311.61915 C252.2,303.71915 263.8,302.61915 276.3,300.01915 C280.8,299.11915 292.4,296.71915 293.9,291.51915 C295.4,286.31915 295.2,280.41915 295.3,275.01915 C295.4,273.21915 294.7,273.11915 293.5,271.71915 C291.1,269.01915 289,265.81915 287.9,262.11915 C286.3,256.61915 285.6,250.81915 285.1,245.21915 C278.8,246.81915 277.8,234.21915 276.7,230.61915 C275.8,228.11915 272.3,213.61915 279,215.71915 C276.9,211.91915 276.3,207.21915 275.7,203.11915 C274.6,193.91915 274.3,184.41915 277.6,175.61915 Z M137.100463,163.300463 L135.5,163.3 C138.3,168.9 133.1,171.7 131.6,172.1 C128.1,172.1 127,169.2 124,169.9 C121.9,170.3 120.9,168.2 119.3,169.2 C117.5,170.3 113.3,172.5 113,174.6 C111.9,180.1 115.9,180.3 119.3,177.1 C122,174.2 127.1,171.8 130.7,174.6 C133.4,176.9 132.9,178.7 132.9,180.8 C132.9,183 132.1,188.6 128.5,187.9 C126.8,187.5 125.6,185.4 123.8,186.8 C119.9,190 115.7,189.2 110.7,190.7 C106.5,191.4 103.3,193.3 99.2,194.8 C95.7,196.2 94.6,196.7 94.1,200.3 C93.9,201.4 93.9,206.4 92.7,207 C90.3,208 89,197.3 82.7,198.1 C77.1,198.8 68.8,204.2 71.3,210.9 C72.3,213.3 84.1,212.1 76,217.2 C75.2,217.8 76.6,224.8 76.7,226 C77.2,229.7 82.6,234.4 86.3,230.7 C89.2,227.8 88.8,228.2 92.5,229.7 C99.3,233 107.5,236.2 112.9,241.7 C115.7,244.6 117.3,252.8 120.9,254.6 C125,256.5 129.4,256.6 132.6,260.5 C135.5,263.6 131.7,269.1 128.9,270.9 C127.3,271.8 123.6,281.9 121.8,284.2 C120.9,286 116.3,286.7 114.7,287.1 C113.4,287.2 111.4,290.9 110.6,291.9 C107.4,295.1 106.8,298.1 102.9,300.7 C94.7,306.2 93,311.2 94.8,320.6 C95.5,324.3 97.3,326.3 99.8,327.7 L99.8,327.7 C100.9,328.3 102,328.8 102.7,330 C104.1,330.5 105.8,330.9 107.4,331.6 C113.6,333.8 120.2,335.3 126.8,336.1 C139.4,337.4 152.3,336.2 164.3,332.2 C171,330 177.5,326.9 183.5,323 C186.3,321.2 186.7,316 188.5,312.3 C192,305 187.7,297.3 193.9,291.1 C199.5,285.1 195.3,282.6 195.4,275.7 C195.4,271 198.9,267.7 197.3,262.8 C196.6,261.1 194.3,264.4 193.3,262.5 C191,259.2 184,261.9 180.7,261.3 C174.6,260.5 169.8,255 165.7,251 C163.4,248.8 165.4,241.9 166.1,239.3 C167.7,232.6 165.8,224.3 174.6,222.2 C176.6,221.8 177,218.1 179.1,217.4 C181.3,216.7 183.5,215.9 185.8,215.5 C189.7,214.8 193.3,216.5 197.3,216.6 C202,216.6 204.2,218.7 207.6,221.5 C210.9,224.1 213.1,222.7 217.2,223.7 C220.3,223.7 217.7,221.2 216.7,219.8 C215.4,218.7 213.8,219.1 212.8,218.8 C205.7,217.2 202.6,209 196.6,205.6 C194.1,204.1 192.5,204.5 191.8,205.5 C191.4,206.1 192.2,210.9 192.2,211 C191.9,212.5 187.6,212.9 186.4,213.3 C182.4,214.3 173.3,205.4 179.5,203.3 C181.6,202.5 192,201.1 190.5,196.6 C189.1,193.7 191.2,190.7 187.9,190.3 C184.3,189.7 185,187.1 181.3,186.7 C179.1,186.2 179,181.7 179,180.2 C178.8,176.2 179.8,177.3 183.1,176.9 C175.1,171.8 166.6,168.1 157.5,165.9 C156.9,167.2 155.1,171 153.7,171.3 C151.7,171.7 151,171.3 149.6,172.7 C145.8,177.3 142.5,185.5 138.5,175.9 C136.4,170.8 140.4,167.4 139.2,163.4 C138.3,163.3 137.5,163.3 136.7,163.3 Z M63.2,203.7 C43.6,235.2 47,276.6 70.5,304.8 L70.5,304.8 L71.3,305.9 C71.4,305.9 71.4,306 71.4,306 C72.8,307.5 74.3,309.2 75.8,310.7 C77.3,312.2 78.8,313.6 80.3,315 C80.6,315.1 80.7,315.2 81,315.5 C81.4,315.9 81.7,316.2 81.9,315.9 C85.1,318.6 88.6,321.1 92.2,323.3 C82.5,313.7 81.8,301 82.6,288.1 C83,284.5 83.9,281 84.4,277.4 C84.5,276.2 82.1,274.1 82.2,272.2 C82.2,267.8 82.5,269.9 78.9,266.3 C77,264.3 74.5,261.5 73.4,258.9 C70.2,251.6 73.8,245.1 77.9,239.5 C82.2,233.2 74.7,230.4 73.5,224.8 C73.1,222.3 70.2,222.3 70.6,219.4 C71.1,216.4 68.9,217 66.6,215.4 C61.3,211.8 66,206.5 63.2,203.7 Z M402.9,185.559822 C413,181.259822 427.2,181.559822 436.7,187.459822 C447.3,194.059822 450.3,206.759822 450.6,218.359822 C451,232.359822 447.5,248.459822 455.1,261.259822 C456.5,263.659822 457.8,263.959822 455,265.559822 C453.8,266.159822 452.5,266.559822 451.3,267.159822 C448.5,268.059822 445.8,268.659822 442.9,269.059822 C439.9,269.459822 436.4,270.059822 433.4,269.759822 C433.1,272.659822 432,278.859822 434.1,281.359822 C438.1,286.359822 449,286.859822 454.6,288.659822 C466.8,292.659822 475.9,302.659822 476,316.359822 L476,316.359822 L420.6,316.359822 C419.1,310.759822 413.4,306.159822 409.3,302.759822 C403.7,298.159822 397.3,294.359822 390.2,292.959822 C388,292.559822 379,293.659822 381.1,289.259822 C382.4,286.259822 387.1,286.059822 390,285.259822 C392.8,284.559822 400.2,283.559822 401,280.159822 C401.3,279.359822 401.7,270.559822 401,270.559822 C396.8,270.459822 392.6,269.959822 388.6,268.959822 C386,268.259822 383.4,267.359822 380.9,266.159822 C376.5,263.959822 379,262.559822 380.8,258.859822 C390.8,236.459822 373.5,197.359822 402.9,185.559822 Z M175.6,188.059822 C175.6,187.159822 173.9,184.659822 176.7,185.059822 C178.7,185.759822 182,189.359822 183,191.159822 C183.8,192.859822 185.7,196.959822 184.1,198.059822 C182.8,199.059822 179.8,198.959822 178.5,195.759822 C177.2,192.559822 178.3,190.859822 176.2,191.759822 C174.1,192.659822 172.9,190.159822 173.3,189.859822 C173.8,189.159822 174.9,188.659822 175.6,188.059822 Z" id="Combined-Shape" fill="#000000" fill-rule="nonzero"></path>
    </g>
</svg>

<svg xmlns="http://www.w3.org/2000/svg" width="512" height="512" viewBox="0 0 512 512">
    <path d="M137.2 148.3c55.8 0 101.2 45.4 101.2 101.2 0 56-45.2 101.2-101.2 101.2C81.4 350.7 36 305.5 36 249.5c0-55.8 45.4-101.2 101.2-101.2zm140.4 27.32c6.8-18.1 25.5-27 44.1-26.3 18.2.5 35.6 10.7 41.2 28.7 2.7 8.7 2.2 18.5.8 27.4-.4 3.3-1.1 7.2-2.9 10.2 7.2-2.3 2.6 14.1 1.8 16.4-.9 3.4-1.8 14.5-7.8 12.9-.7 7-1.1 15.4-4.8 21.7-1 1.6-5.4 5.2-5.4 7 0 2.8.2 5.4.3 8 .3 3.3.3 7.1 1.4 10.3 1.1 3.2 6.7 4.4 9.6 5.4 9.4 3.3 19.6 3.4 28.9 6.7 19.6 6.8 31.9 24.8 31.7 45.7H223.2c0-15.1 6.4-29.2 18.6-38.1 10.4-7.9 22-9 34.5-11.6 4.5-.9 16.1-3.3 17.6-8.5s1.3-11.1 1.4-16.5c.1-1.8-.6-1.9-1.8-3.3-2.4-2.7-4.5-5.9-5.6-9.6-1.6-5.5-2.3-11.3-2.8-16.9-6.3 1.6-7.3-11-8.4-14.6-.9-2.5-4.4-17 2.3-14.9-2.1-3.8-2.7-8.5-3.3-12.6-1.1-9.2-1.4-18.7 1.9-27.5zM137.1 163.3h-1.6c2.8 5.6-2.4 8.4-3.9 8.8-3.5 0-4.6-2.9-7.6-2.2-2.1.4-3.1-1.7-4.7-.7-1.8 1.1-6 3.3-6.3 5.4-1.1 5.5 2.9 5.7 6.3 2.5 2.7-2.9 7.8-5.3 11.4-2.5 2.7 2.3 2.2 4.1 2.2 6.2 0 2.2-.8 7.8-4.4 7.1-1.7-.4-2.9-2.5-4.7-1.1-3.9 3.2-8.1 2.4-13.1 3.9-4.2.7-7.4 2.6-11.5 4.1-3.5 1.4-4.6 1.9-5.1 5.5-.2 1.1-.2 6.1-1.4 6.7-2.4 1-3.7-9.7-10-8.9-5.6.7-13.9 6.1-11.4 12.8 1 2.4 12.8 1.2 4.7 6.3-.8.6.6 7.6.7 8.8.5 3.7 5.9 8.4 9.6 4.7 2.9-2.9 2.5-2.5 6.2-1 6.8 3.3 15 6.5 20.4 12 2.8 2.9 4.4 11.1 8 12.9 4.1 1.9 8.5 2 11.7 5.9 2.9 3.1-.9 8.6-3.7 10.4-1.6.9-5.3 11-7.1 13.3-.9 1.8-5.5 2.5-7.1 2.9-1.3.1-3.3 3.8-4.1 4.8-3.2 3.2-3.8 6.2-7.7 8.8-8.2 5.5-9.9 10.5-8.1 19.9.7 3.7 2.5 5.7 5 7.1 1.1.6 2.2 1.1 2.9 2.3 1.4.5 3.1.9 4.7 1.6 6.2 2.2 12.8 3.7 19.4 4.5 12.6 1.3 25.5.1 37.5-3.9 6.7-2.2 13.2-5.3 19.2-9.2 2.8-1.8 3.2-7 5-10.7 3.5-7.3-.8-15 5.4-21.2 5.6-6 1.4-8.5 1.5-15.4 0-4.7 3.5-8 1.9-12.9-.7-1.7-3 1.6-4-.3-2.3-3.3-9.3-.6-12.6-1.2-6.1-.8-10.9-6.3-15-10.3-2.3-2.2-.3-9.1.4-11.7 1.6-6.7-.3-15 8.5-17.1 2-.4 2.4-4.1 4.5-4.8 2.2-.7 4.4-1.5 6.7-1.9 3.9-.7 7.5 1 11.5 1.1 4.7 0 6.9 2.1 10.3 4.9 3.3 2.6 5.5 1.2 9.6 2.2 3.1 0 .5-2.5-.5-3.9-1.3-1.1-2.9-.7-3.9-1-7.1-1.6-10.2-9.8-16.2-13.2-2.5-1.5-4.1-1.1-4.8-.1-.4.6.4 5.4.4 5.5-.3 1.5-4.6 1.9-5.8 2.3-4 1-13.1-7.9-6.9-10 2.1-.8 12.5-2.2 11-6.7-1.4-2.9.7-5.9-2.6-6.3-3.6-.6-2.9-3.2-6.6-3.6-2.2-.5-2.3-5-2.3-6.5-.2-4 .8-2.9 4.1-3.3-8-5.1-16.5-8.8-25.6-11-.6 1.3-2.4 5.1-3.8 5.4-2 .4-2.7 0-4.1 1.4-3.8 4.6-7.1 12.8-11.1 3.2-2.1-5.1 1.9-8.5.7-12.5-.9-.1-1.7-.1-2.5-.1zm-73.9 40.4c-19.6 31.5-16.2 72.9 7.3 101.1l.8 1.1c.1 0 .1.1.1.1 1.4 1.5 2.9 3.2 4.4 4.7 1.5 1.5 3 2.9 4.5 4.3.3.1.4.2.7.5.4.4.7.7.9.4 3.2 2.7 6.7 5.2 10.3 7.4-9.7-9.6-10.4-22.3-9.6-35.2.4-3.6 1.3-7.1 1.8-10.7.1-1.2-2.3-3.3-2.2-5.2 0-4.4.3-2.3-3.3-5.9-1.9-2-4.4-4.8-5.5-7.4-3.2-7.3.4-13.8 4.5-19.4 4.3-6.3-3.2-9.1-4.4-14.7-.4-2.5-3.3-2.5-2.9-5.4.5-3-1.7-2.4-4-4-5.3-3.6-.6-8.9-3.4-11.7zm339.7-18.14c10.1-4.3 24.3-4 33.8 1.9 10.6 6.6 13.6 19.3 13.9 30.9.4 14-3.1 30.1 4.5 42.9 1.4 2.4 2.7 2.7-.1 4.3-1.2.6-2.5 1-3.7 1.6-2.8.9-5.5 1.5-8.4 1.9-3 .4-6.5 1-9.5.7-.3 2.9-1.4 9.1.7 11.6 4 5 14.9 5.5 20.5 7.3 12.2 4 21.3 14 21.4 27.7h-55.4c-1.5-5.6-7.2-10.2-11.3-13.6-5.6-4.6-12-8.4-19.1-9.8-2.2-.4-11.2.7-9.1-3.7 1.3-3 6-3.2 8.9-4 2.8-.7 10.2-1.7 11-5.1.3-.8.7-9.6 0-9.6-4.2-.1-8.4-.6-12.4-1.6-2.6-.7-5.2-1.6-7.7-2.8-4.4-2.2-1.9-3.6-.1-7.3 10-22.4-7.3-61.5 22.1-73.3zm-227.3 2.5c0-.9-1.7-3.4 1.1-3 2 .7 5.3 4.3 6.3 6.1.8 1.7 2.7 5.8 1.1 6.9-1.3 1-4.3.9-5.6-2.3-1.3-3.2-.2-4.9-2.3-4-2.1.9-3.3-1.6-2.9-1.9.5-.7 1.6-1.2 2.3-1.8z"/>
</svg>
